X:1
T: The Northern Jig
C:C Sherrit
R:Jig
Q:180
K:A
M:6/8
L:1/16
e2|:f2e2^d2 e4c2|A2G2F2 E4E2|F2A2d2 =F2A2d2|c6A4G2|
|1F2A2d2 =F2A2d2|E2A2c2 e4c2|B2^A2B2 f2c2^d2|e6e4e2:|
|2F2A2d2 f4d2|e2^d2f2 e4c2|B2c2d2 E2F2G2|A6A4=G2|
|:F2=F2^F2 A2G2A2|d2c2d2 f2e2d2|e2^d2f2 e2A2B2|c6c4e2|
|1e2^d2=d2 B2G2F2|E2G2B2 d2c2d2|e4c2 A2B2=c2|^c6A4G2:|
|2e2^d2=d2 B2G2F2|E2G2B2 d4F2|E2F2E2 d2c2B2|A6A4||
